archdroid-icon-theme/Archdroid-LightGreen/status/scalable/progress-50-symbolic.svg

<svg height="48" width="48" xmlns="http://www.w3.org/2000/svg"><path d="m24 6a18 18 0 0 0 -18 18 18 18 0 0 0 18 18 18 18 0 0 0 18-18 18 18 0 0 0 -.277344-3.125l-3.9375.693359a14 14 0 0 1 .214844 2.431641 14 14 0 0 1 -14 14 14 14 0 0 1 -14-14 14 14 0 0 1 14-14z" fill="#8BC34A" stroke-width="3" transform=""/></svg>

<svg height="48" version="1.1" width="48" xmlns="http://www.w3.org/2000/svg"><g transform="translate(0 -1004.3622)"><path d="M24 6A18 18 0 0 0 6 24 18 18 0 0 0  24 42 18 18 0 0 0  42 24 18 18 0 0 0  41.722656 20.875L37.785156 21.568359A14 14 0 0 1 38 24 14 14 0 0 1  24 38 14 14 0 0 1  10 24 14 14 0 0 1  24 10L24 6z" fill="#8BC34A" stroke-width="3" transform="translate(0 1004.3622)"/></g></svg>
